assets/gcpaiplatform/original.svg

<svg height="24" width="24" xmlns="http://www.w3.org/2000/svg"><g fill-rule="evenodd"><path d="m16.64 15.13.74-1.25h3.53l1.09-1.88-2.18-3.75h-3.07l-1.06-1.86h-1.19v-1.26h1.94l1.06 1.87h1.59l-2.19-3.75h-4.27v5h1.73l.73 1.25h-2.46v2.5h2.26l1.05-1.87h2.81l.72 1.25h-2.8l-1.05 1.87h-2.99v4.38h3.4l-.72 1.25h-2.68v1.87h4.27l3.28-5.62h-2.09l-.73 1.25h-2.86v-1.25z" fill="#4285f4"/><path d="m7.36 15.13-.74-1.25h-3.53l-1.09-1.88 2.18-3.75h3.07l1.06-1.86h1.19v-1.26h-1.94l-1.06 1.87h-1.59l2.19-3.75h4.28v5h-1.74l-.73 1.25h2.47v2.5h-2.27l-1.05-1.87h-2.81l-.72 1.25h2.8l1.05 1.87h3v4.38h-3.41l.72 1.25h2.69v1.87h-4.28l-3.28-5.62h2.09l.73 1.25h2.86v-1.25z" fill="#669df6"/></g></svg>

<svg xmlns="http://www.w3.org/2000/svg" width="24" height="24"><g data-name="Product Icons"><path d="m16.64 15.13.74-1.25h3.53L22 12l-2.18-3.75h-3.07l-1.06-1.86H14.5V5.13h1.94L17.5 7h1.59L16.9 3.25h-4.27v5h1.73l.73 1.25h-2.46V12h2.26l1.05-1.87h2.81l.72 1.25h-2.8l-1.05 1.87h-2.99v4.38h3.4l-.72 1.25h-2.68v1.87h4.27l3.28-5.62h-2.09l-.73 1.25H14.5v-1.25z" fill-rule="evenodd" fill="#4285f4"/><path d="m7.36 15.13-.74-1.25H3.09L2 12l2.18-3.75h3.07l1.06-1.86H9.5V5.13H7.56L6.5 7H4.91L7.1 3.25h4.28v5H9.64L8.91 9.5h2.47V12H9.11l-1.05-1.87H5.25l-.72 1.25h2.8l1.05 1.87h3v4.38H7.97l.72 1.25h2.69v1.87H7.1l-3.28-5.62h2.09l.73 1.25H9.5v-1.25z" fill="#669df6" fill-rule="evenodd"/></g></svg>
